X:1
T:Now I Know What Makes Me Happy
T:Now I Know What Makes Me Happy
T:Daniel Brink Towner, 1903
T:Will Bessey, 1868
T:Public Domain Courtesy of the Cyber Hymnal™
T:Public Domain Courtesy of the Cyber Hymnal™
C:Daniel Brink Towner, 1903
Z:Public Domain
Z:Courtesy of the Cyber Hymnal™
%%score ( 1 2 ) ( 3 4 )
L:1/8
Q:1/4=90
M:3/4
K:Bb
V:1 treble 
V:2 treble 
V:3 bass 
V:4 bass 
V:1
 [DF]>[DF] [DF]>[DF] [EG]>[EG] | [DF]/ [DB]7/2 [FB]>[FB] | [GB]>[GB] [EG]2 [EB]2 | [DF]4 z2 | %4
w: 1.~Now I know what makes me|hap- py, As I|know what made me|sad;|
w: 2.~Now I know what makes me|hap- py; Not my|com- fort or my|ease,|
w: 3.~Now I know what makes me|hap- py, For He|fills me with de-|light|
w: 4.~Now I know what makes me|hap- py; His own|pre- sence in my|breast,|
 [DF]>[DF] [DF]>[DF] [EG]>[EG] | [DF]/ [DB]7/2 [Fd]>[Fd] | [=Ec]>[EG] [FA]2 [GB]2 | c6 || %8
w: Christ has all my sins for-|giv- en, And His|Spir- it makes me|glad!|
w: For I sim- ply walk with|Je- sus, Choose my|bless- èd Lord to|please.|
w: By His ut- ter- most sal-|va- tion, And His|strength to do the|right.|
w: As with joy I do His|bid- ding, And with|Je- sus leave the|rest.|
"^Refrain" [DF]/ [Fd]7/2 (3(cB)[EG] | [EG]/ [DF]7/2 [FA]>[FA] | [FB]>[FB] [=Ec]2 [Ed]2 | [Fc]6 | %12
w: Hap- py, al- * ways|hap- py, Joy in|health and joy in|pain!|
w: Hap- py, al- * ways|hap- py, Joy in|loss- es, joy in|gain!|
w: Hap- py, al- * ways|hap- py, Joy in|dark- ness just the|same,|
w: Hap- py, al- * ways|hap- py, Earth- ly|loss is heav’n- ly|gain;|
 [Fd]>[Fd] [Fc]>[Fc] [FB]>F | [FA]/ [EG]7/2 [EA]>[EG] | [DF]>[DF] [EG]2 [EA]2 | [DB]6 |] %16
w: Live your dai- ly life with|Je- sus, And your|joy will e’er re-|main.|
w: Joy in God’s most pre- cious|prom- ise, And your|joy will e’er re-|main.|
w: As you walk out on His|prom- ise, Bless- èd|joy will e’er re-|main.|
w: Joy in His de- light- ful|la- bor, Joy in|His e- ter- nal|reign.|
V:2
 x6 | x6 | x6 | x6 | x6 | x6 | x6 | (F4 E2) || x4 G2 | x6 | x6 | x6 | x11/2 F/ | x6 | x6 | x6 |] %16
V:3
 [B,,B,]>[B,,B,] [B,,B,]>[B,,B,] [E,B,]>[E,B,] | [B,,B,]/ [B,,F,]7/2 [D,B,]>[D,B,] | %2
 [E,B,]>[E,B,] [E,B,]2 [G,B,]2 | B,4 z2 | [B,,B,]>[B,,B,] [B,,B,]>[B,,B,] [E,B,]>[E,B,] | %5
 [B,,B,]/ [B,,F,]7/2 [B,,B,]>[B,,B,] | [C,B,]>[C,C] [C,C]2 [=E,C]2 | [E,A,]6 || %8
 [B,,B,]/ ([B,,B,]>[B,,B,][B,,B,]3/2) (3:2:2([E,B,]2 [E,B,]) | [B,,B,]/ [B,,B,]7/2 [F,C]>[F,C] | %10
 [D,B,]>[D,B,] [C,B,]2 [C,B,]2 | [F,A,]6 | B,>B, [F,A,]>[E,A,] [D,B,]>[D,B,] | %13
 [E,B,]/ [E,B,]7/2 [E,B,]>[E,B,] | [F,B,]>[F,B,] [F,A,]2 F,2 | [B,,F,]6 |] %16
V:4
 x6 | x6 | x6 | B,4 x2 | x6 | x6 | x6 | x6 || x6 | x6 | x6 | x6 | B,>B, x4 | x6 | x4 F,2 | x6 |] %16

